icons/desktop/16/svg/ask-16.svg

<svg width="16" height="16" viewBox="0 0 16 16" fill="none" xmlns="http://www.w3.org/2000/svg">
<g clip-path="url(#clip0_13876_764)">
<path d="M7.86484 5.16211C8.07084 4.63711 8.92739 4.63811 9.13339 5.16211L9.59335 6.33105L10.818 6.84668C11.0798 6.94962 11.2484 7.19866 11.2486 7.48047C11.2486 7.76247 11.08 8.01223 10.817 8.11523L9.64999 8.57617L9.13339 9.7998C9.03039 10.0618 8.78062 10.2295 8.49862 10.2295C8.21718 10.229 7.96865 10.0614 7.86581 9.7998L7.40585 8.63086L6.18124 8.11523C5.91924 8.01223 5.7496 7.76247 5.7496 7.48047C5.74978 7.19866 5.91936 6.94962 6.18222 6.84668L7.34921 6.38574L7.40487 6.33008L7.86484 5.16211Z" fill="black"/>
<path fill-rule="evenodd" clip-rule="evenodd" d="M8.4996 0C12.6418 0 15.9996 3.35779 15.9996 7.5C15.9996 11.6422 12.6418 15 8.4996 15C7.22884 14.9999 6.03262 14.6794 4.98398 14.1201L3.06601 14.8506C1.14042 15.5823 -0.6751 13.5579 0.262296 11.7236L1.31698 9.65918C1.11054 8.97495 0.999601 8.24984 0.999601 7.5C0.999601 3.35791 4.35756 0.000204599 8.4996 0ZM8.4996 1.5C5.18599 1.5002 2.4996 4.18634 2.4996 7.5C2.4996 8.19297 2.61811 8.85708 2.83456 9.47461C2.90246 9.66828 2.88792 9.88171 2.79452 10.0645L1.59823 12.4062C1.28578 13.0177 1.88975 13.6926 2.53183 13.4492L4.77792 12.5938C4.99256 12.512 5.23319 12.5334 5.43026 12.6514C6.32903 13.1892 7.37732 13.4999 8.4996 13.5C11.8134 13.5 14.4996 10.8138 14.4996 7.5C14.4996 4.18621 11.8134 1.5 8.4996 1.5Z" fill="black"/>
</g>
<defs>
<clipPath id="clip0_13876_764">
<rect width="16" height="16" fill="white"/>
</clipPath>
</defs>
</svg>

<!-- This Source Code Form is subject to the terms of the Mozilla Public
   - License, v. 2.0. If a copy of the MPL was not distributed with this
   - file, You can obtain one at http://mozilla.org/MPL/2.0/. -->
<svg xmlns="http://www.w3.org/2000/svg" width="16" height="16" fill="context-fill" fill-opacity="context-fill-opacity" viewBox="0 0 16 16">
    <g clip-path="url(#clip0_13876_764)">
        <path d="M7.865 5.162c.206-.525 1.062-.524 1.268 0l.46 1.17 1.225.515c.262.103.43.352.43.633a.68.68 0 0 1-.431.635l-1.167.461L9.133 9.8a.68.68 0 0 1-.634.43.68.68 0 0 1-.633-.43l-.46-1.17-1.225-.515a.68.68 0 0 1-.431-.635c0-.281.17-.53.432-.633l1.167-.461.056-.056z" />
        <path fill-rule="evenodd" d="M8.5 0a7.5 7.5 0 1 1 0 15 7.45 7.45 0 0 1-3.516-.88l-1.918.73c-1.926.732-3.741-1.292-2.804-3.126l1.055-2.065A7.5 7.5 0 0 1 8.5 0m0 1.5a6 6 0 0 0-5.665 7.975.75.75 0 0 1-.04.59l-1.197 2.341c-.312.612.292 1.287.934 1.043l2.246-.855a.75.75 0 0 1 .652.057 5.96 5.96 0 0 0 3.07.849 6 6 0 1 0 0-12" clip-rule="evenodd" />
    </g>
</svg>
